!!!OTL: ICH HAB EIN KLEINES MURMELTIER
!!!ARE: Europa, Mitteleuropa, Deutschland, Brandenburg
!!!SCT: K2256
!!!YEM: Copyright 1995, estate of Helmut Schaffrath.
**kern
*ICvox
*Ivox
*M2/4
*k[b-]
*F:
{8f
=1
8cc
8cc
8cc
8dd
=2
8cc
8b-
8a}
{8f
=3
8cc
8cc
8cc
8dd
=4
4cc
8a}
{8f
=5
8cc
8cc
8cc
8dd
=6
8cc
8b-
8a}
{8f
=7
8dd
8cc
8b-
8a
=8
4g
8f}
{8f
=9
8cc
8cc
8cc
8dd
=10
4cc
8a}
{8f
=11
8cc
8cc
8cc
8dd
=12
8cc
8b-
8a}
{8f
=13
8dd
8cc
8b-
8a
=14
4g
8f}
{8f
=15
8cc
8cc
8cc
8dd
=16
8cc
8b-
8a}
{8f
=17
8dd
8cc
8b-
8a
=18
4g
8f}
==
!!!AGN: Kinder - Lied, Reigen, Tanz, Nachahmungs - Spiel
!!!ONB: ESAC (Essen Associative Code) Database: KINDER
!!!AMT: simple duple
!!!AIN: vox
!!!EED: Helmut Schaffrath
!!!EEV: 1.0
*-
